X:1
T:Kingdom Dance
T:Kingdom Dance
T:From Tangled
L:1/8
Q:1/4=190
M:3/4
K:A
V:1 treble nm="Violin" snm="Vln."
V:1
"^\n" z6 | z6 | z6 | z6 | z2 Bd e2 |:{/c} d2 B2 A2 | GA GE DF | EF EF GA | B2 Bd e2 | %9
{/c} d2 B2 A2 | GA GE DF | E6 |1 B2 Bd e2 :|2 ^de fe dB || (G2 .B2) z2 | (A2 .B2) z2 | %16
 (G2 .B2) z2 | ^de fe dB | A2 B4 |{/G} A3 F D2 | E6 | ^de fe dB | G2 B4 | A3 B d2 | e6 | B2 BB B2 | %26
 B2 BB B2 | B2 Bd ea | g2 fe dd | B2 BB B2 | B2 BB B2 | B2 BB Ac | d2 B2 A2 | GA GE DF | EF EF GA | %35
 B2 Bd e2 |{/c} d2 B2 A2 | B2 Bd e2 | d2 B2 A2 | B2 Bd e2- | e4 Bd | e6 | E2 ^D2 E2- | E2 DE D2- | %44
 D6- | D2 FG F2- | F2 EF E2 | z6 | z2 B,C ^DE | B,C ^DE FG | AB c^d ef |[K:D] e2 EF GE | %52
[M:4/4] B2 B2 ABdc | A B2 E EFGE | B2 B2 ABGA | A B2 E EFGE | B2 B2 ABGA | A B2 E EFGE | %58
 BAGA Bd .e2 |: A B2 E EFGE | B2 B2 ABdc | A B2 E EFGE |1 B2 B2 ABGA :|2 BAGA BG A2 || E8 | %65
 B2 B2 ABdc | A B2 E EFGE | B2 B2 ABGA | A B2 E EFGE | B2 B2 ABdc | A B2 E EFGE | B2 B2 ABGA | %72
 d2 e2 d2 B2 | d2 e2 d2 B2 | d2 e2 d2 B2 | d2 ef gfed | e3 f gfed | b2 b2 abd'c' | a b2 e efge | %79
 b2 ba gfed | e3 f gfed | b2 b2 abd'c' | a b2 e efge | b2 b2 abga | a b2 e efge | b2 ba bagf | %86
 e4 b4 | e4 b4 | e4 b4 | e'2 z2 z4 | z8 |] %91

